X:345
T:Steeplechase
Z: id:dc-reel-321
M:C
L:1/8
K:C Major
B|c2C2 EGG2|Add^c dfed|cBcG AdcA|G2EC DCA,2|!
G,CC2 EGG2|Add^c dfed|cBcG AdcA|GEDF ECC:|!
B|c2ec gcea|gedf eGAB|c2ec gcea|gedc BGAB|!
cdec Gcea|gedc ABcd|egg2 eaa2|[1 gedf eGA:|[2 gedf ecc|]!

